src/components/Emoji/images/man-tipping.svg

<svg enable-background="new 0 0 64 64" height="64" viewBox="0 0 64 64" width="64" xmlns="http://www.w3.org/2000/svg" xmlns:xlink="http://www.w3.org/1999/xlink"><linearGradient id="a" gradientUnits="userSpaceOnUse" x1="43.481" x2="38.566" y1="55.593" y2="54.343"><stop offset="0" stop-color="#529320"/><stop offset=".105" stop-color="#5b9b1f"/><stop offset=".37" stop-color="#6ca91e"/><stop offset=".656" stop-color="#77b21d"/><stop offset="1" stop-color="#7ab51d"/></linearGradient><path d="m53.092 40.838c.611-.342.564-1.785-.917-1.404-3.563.915-5.712 1.596-6.733 3.496-.689 1.281 3.346-.139 7.65-2.092z" fill="#d6a67a"/><path d="m6.257 49.336c2.4-1.572 12.361-5.727 12.361-5.727h14.842s9.951 4.144 12.339 5.723c3.469 2.289 4.201 12.668 4.201 12.668h-48s.775-10.387 4.257-12.664z" fill="#7ab51d"/><g fill="#d6a67a"><path d="m18.002 44.999c0 6.75 16 6.75 16 0v-7h-16z"/><path d="m10.611 22.873c-5.146-.928-1.127 13.463 2.902 9.494 1.866-1.842-.496-9.058-2.902-9.494z"/><path d="m41.39 22.873c-2.406.435-4.77 7.652-2.9 9.494 4.029 3.969 8.045-10.422 2.9-9.494z"/></g><path d="m26.002 6c-10.643 0-15.77 8.051-15.127 19.246.129 2.254 1.525 9.6 2.844 12.234 1.348 2.695 5.859 6.851 8.625 7.712 1.746.543 5.568.543 7.315 0 2.764-.861 7.277-5.017 8.627-7.712 1.318-2.635 2.713-9.98 2.842-12.234.643-11.195-4.486-19.246-15.126-19.246z" fill="#e3c19b"/><path d="m26.002 36.477c-2.395-.705-5.939.332-5.939.332 1.35 1.471 2.34 3.381 5.939 3.381 4.123 0 4.822-2.166 5.939-3.381 0 0-3.549-1.041-5.939-.332z" fill="#bf8c6b"/><path d="m20.966 37.059c2.508 2.105 7.576 2.117 10.1 0-2.674.113-7.406.115-10.1 0z" fill="#fff"/><path d="m29.3 32.518c0 2.148-6.6 2.148-6.6 0 .001-.493 6.6-.493 6.6 0z" fill="#d6a67a"/><path d="m26.002 6c-7.322 0-11.744 2.418-13.652 1.49 0 0-.207 1.248.541 2.061 0 0-.789.684-2.063-.469-1.213 3.939 2.387 6.221 15.174 6.221 12.785 0 9.73-3.113 16.016 2.355-.616-6.74-4.899-11.658-16.016-11.658z" fill="#efde8b"/><path d="m31.416 11.875c-7.041 2.6-9.613-2.088-16.256-2.541 3.16 1.492 4.701 3.787 7.295 5.443-5.644-1.889-9.789-5.141-10.103-7.275 0 0-.941 3.117 2.785 5.447-3.563.33-4.307-3.855-4.307-3.855-1.805 2.898-1.555 12.246.449 19.182.334-2.475-.426-3.498.717-6.48 3.426-8.914 1.221-5.172 14.008-5.172 12.783 0 10.476-3.414 14.004 5.172 1.053 2.559.383 4.006.719 6.48 4.202-15.639-1.843-19.157-9.311-16.401z" fill="#ba9d52"/><path d="m37.394 26.113c-1.424 3.721-7.207 3.176-8.268.57.805-4.185 7.487-4.542 8.268-.57z" fill="#fff"/><path d="m14.607 26.113c1.422 3.721 7.209 3.176 8.268.57-.807-4.187-7.487-4.544-8.268-.57z" fill="#fff"/><path d="m37.984 21.631c-2.436-1.207-7.092-1.268-8.826-.426-.371.164-.127 1.311.185 1.199 2.42-.895 6.318-.916 8.582.078.301.127.428-.681.059-.851z" fill="#bf8c6b"/><path d="m14.017 21.631c2.434-1.207 7.09-1.268 8.826-.426.371.164.127 1.311-.185 1.199-2.422-.895-6.318-.916-8.584.078-.301.127-.426-.681-.057-.851z" fill="#bf8c6b"/><path d="m30.603 25.715c0 3.266 4.725 3.266 4.725 0 0-3.033-4.725-3.033-4.725 0z" fill="#613f34"/><path d="m31.07 26.762c0 1.871 3.791 1.871 3.791 0 0-1.738-3.791-1.738-3.791 0z" fill="#7d5037"/><path d="m31.984 25.766c0 1.358 1.963 1.358 1.963 0 0-1.256-1.963-1.256-1.963 0z" fill="#1a1626"/><path d="m31.314 25.371c0 .686.992.686.992 0 0-.635-.992-.635-.992 0z" fill="#ab968c"/><path d="m16.674 25.715c0 3.266 4.726 3.266 4.726 0 0-3.033-4.726-3.033-4.726 0z" fill="#613f34"/><path d="m17.142 26.76c0 1.873 3.789 1.873 3.789 0 0-1.739-3.789-1.739-3.789 0z" fill="#7d5037"/><path d="m18.056 25.766c0 1.355 1.961 1.355 1.961 0 0-1.258-1.961-1.258-1.961 0z" fill="#1a1626"/><path d="m17.386 25.371c0 .684.99.684.99 0 .001-.637-.99-.637-.99 0z" fill="#ab968c"/><path d="m37.394 26.084c0-3.998-8.268-3.998-8.268.633 1.182-3.799 7.087-3.799 8.268-.633z" fill="#d6a67a"/><path d="m14.607 26.084c0-3.998 8.268-3.998 8.268.631-1.18-3.799-7.086-3.799-8.268-.631z" fill="#d6a67a"/><path d="m9 62h1c-.5-6.666-.5-6.666-1 0z" fill="#529320"/><path d="m34.987 62h8.677l-.038-13.855-5.218-2.408c0-.001-3.097 11.691-3.421 16.263z" fill="url(#a)"/><path d="m51.843 62s-.467-15.172-1.031-15.766c-1.053-1.104-5.824-.666-6.635.021-.81.688-2.334 15.745-2.334 15.745z" fill="#7ab51d"/><path d="m50.453 46.75c-.088-.662.328-1.234.328-1.234s12.961-2.807 11.021-5.51c-.836-1.162-5.111.26-8.902.695-2.307.266-8.887-.998-8.267 6.049.126 1.451 5.923.791 5.82 0z" fill="#e3c19b"/></svg>

<svg version="1.1" id="Layer_1" xmlns="http://www.w3.org/2000/svg" xmlns:xlink="http://www.w3.org/1999/xlink" x="0" y="0" width="64" height="64" viewBox="0 0 64 64" enable-background="new 0 0 64 64" xml:space="preserve"><path fill="#D6A67A" d="M53.092,40.838c0.611-0.342,0.564-1.785-0.917-1.404c-3.563,0.915-5.712,1.596-6.733,3.496	C44.753,44.211,48.788,42.791,53.092,40.838z"/><path fill="#7AB51D" d="M6.257,49.336c2.4-1.572,12.361-5.727,12.361-5.727H33.46c0,0,9.951,4.144,12.339,5.723	C49.268,51.621,50,62,50,62H2C2,62,2.775,51.613,6.257,49.336z"/><path fill="#D6A67A" d="M18.002,44.999c0,6.75,16,6.75,16,0v-7h-16V44.999z"/><path fill="#D6A67A" d="M10.611,22.873c-5.146-0.928-1.127,13.463,2.902,9.494C15.379,30.525,13.017,23.309,10.611,22.873z"/><path fill="#D6A67A" d="M41.39,22.873c-2.406,0.435-4.77,7.652-2.9,9.494C42.519,36.336,46.535,21.945,41.39,22.873z"/><path fill="#E3C19B" d="M26.002,6c-10.643,0-15.77,8.051-15.127,19.246c0.129,2.254,1.525,9.6,2.844,12.234	c1.348,2.695,5.859,6.851,8.625,7.712c1.746,0.543,5.568,0.543,7.315,0c2.764-0.861,7.277-5.017,8.627-7.712	c1.318-2.635,2.713-9.98,2.842-12.234C41.771,14.051,36.642,6,26.002,6z"/><path fill="#BF8C6B" d="M26.002,36.477c-2.395-0.705-5.939,0.332-5.939,0.332c1.35,1.471,2.34,3.381,5.939,3.381	c4.123,0,4.822-2.166,5.939-3.381C31.941,36.809,28.392,35.768,26.002,36.477z"/><g><path fill="#FFF" d="M20.966,37.059c2.508,2.105,7.576,2.117,10.1,0C28.392,37.172,23.66,37.174,20.966,37.059z"/></g><path fill="#D6A67A" d="M29.3,32.518c0,2.148-6.6,2.148-6.6,0C22.701,32.025,29.3,32.025,29.3,32.518z"/><path fill="#EFDE8B" d="M26.002,6c-7.322,0-11.744,2.418-13.652,1.49c0,0-0.207,1.248,0.541,2.061c0,0-0.789,0.684-2.063-0.469	c-1.213,3.939,2.387,6.221,15.174,6.221c12.785,0,9.73-3.113,16.016,2.355C41.402,10.918,37.119,6,26.002,6z"/><path fill="#BA9D52" d="M31.416,11.875c-7.041,2.6-9.613-2.088-16.256-2.541c3.16,1.492,4.701,3.787,7.295,5.443	c-5.644-1.889-9.789-5.141-10.103-7.275c0,0-0.941,3.117,2.785,5.447c-3.563,0.33-4.307-3.855-4.307-3.855	c-1.805,2.898-1.555,12.246,0.449,19.182c0.334-2.475-0.426-3.498,0.717-6.48c3.426-8.914,1.221-5.172,14.008-5.172	c12.783,0,10.476-3.414,14.004,5.172c1.053,2.559,0.383,4.006,0.719,6.48C44.929,12.637,38.884,9.119,31.416,11.875z"/><path fill="#FFF" d="M37.394,26.113c-1.424,3.721-7.207,3.176-8.268,0.57C29.931,22.498,36.613,22.141,37.394,26.113z"/><path fill="#FFF" d="M14.607,26.113c1.422,3.721,7.209,3.176,8.268,0.57C22.068,22.496,15.388,22.139,14.607,26.113z"/><g><path fill="#BF8C6B" d="M37.984,21.631c-2.436-1.207-7.092-1.268-8.826-0.426c-0.371,0.164-0.127,1.311,0.185,1.199 c2.42-0.895,6.318-0.916,8.582,0.078C38.226,22.609,38.353,21.801,37.984,21.631z"/><path fill="#BF8C6B" d="M14.017,21.631c2.434-1.207,7.09-1.268,8.826-0.426c0.371,0.164,0.127,1.311-0.185,1.199 c-2.422-0.895-6.318-0.916-8.584,0.078C13.773,22.609,13.648,21.801,14.017,21.631z"/></g><g><path fill="#613F34" d="M30.603,25.715c0,3.266,4.725,3.266,4.725,0C35.328,22.682,30.603,22.682,30.603,25.715z"/><path fill="#7D5037" d="M31.07,26.762c0,1.871,3.791,1.871,3.791,0C34.861,25.024,31.07,25.024,31.07,26.762z"/><path fill="#1A1626" d="M31.984,25.766c0,1.358,1.963,1.358,1.963,0C33.947,24.51,31.984,24.51,31.984,25.766z"/><path fill="#AB968C" d="M31.314,25.371c0,0.686,0.992,0.686,0.992,0C32.306,24.736,31.314,24.736,31.314,25.371z"/></g><g><path fill="#613F34" d="M16.674,25.715c0,3.266,4.726,3.266,4.726,0C21.4,22.682,16.674,22.682,16.674,25.715z"/><path fill="#7D5037" d="M17.142,26.76c0,1.873,3.789,1.873,3.789,0C20.931,25.021,17.142,25.021,17.142,26.76z"/><path fill="#1A1626" d="M18.056,25.766c0,1.355,1.961,1.355,1.961,0C20.017,24.508,18.056,24.508,18.056,25.766z"/><path fill="#AB968C" d="M17.386,25.371c0,0.684,0.99,0.684,0.99,0C18.377,24.734,17.386,24.734,17.386,25.371z"/></g><path fill="#D6A67A" d="M37.394,26.084c0-3.998-8.268-3.998-8.268,0.633C30.308,22.918,36.213,22.918,37.394,26.084z"/><path fill="#D6A67A" d="M14.607,26.084c0-3.998,8.268-3.998,8.268,0.631C21.695,22.916,15.789,22.916,14.607,26.084z"/><path fill="#529320" d="M9,62h1C9.5,55.334,9.5,55.334,9,62z"/><linearGradient id="SVGID_1_" gradientUnits="userSpaceOnUse" x1="43.481" y1="55.593" x2="38.566" y2="54.343"><stop offset="0" stop-color="#529320"/><stop offset=".105" stop-color="#5B9B1F"/><stop offset=".37" stop-color="#6CA91E"/><stop offset=".656" stop-color="#77B21D"/><stop offset="1" stop-color="#7AB51D"/></linearGradient><path fill="url(#SVGID_1_)" d="M34.987,62h8.677l-0.038-13.855l-5.218-2.408C38.408,45.736,35.311,57.428,34.987,62z"/><path fill="#7AB51D" d="M51.843,62c0,0-0.467-15.172-1.031-15.766c-1.053-1.104-5.824-0.666-6.635,0.021	C43.367,46.943,41.843,62,41.843,62H51.843z"/><path fill="#E3C19B" d="M50.453,46.75c-0.088-0.662,0.328-1.234,0.328-1.234s12.961-2.807,11.021-5.51	c-0.836-1.162-5.111,0.26-8.902,0.695c-2.307,0.266-8.887-0.998-8.267,6.049C44.759,48.201,50.556,47.541,50.453,46.75z"/></svg>
